icons/arrow-crash-down.svg

<svg width="24" height="25" viewBox="0 0 24 25" fill="none" xmlns="http://www.w3.org/2000/svg">
<path fill-rule="evenodd" clip-rule="evenodd" d="M12 18.2461C11.5858 18.2461 11.25 17.9103 11.25 17.4961L11.25 7.49609C11.25 7.08188 11.5858 6.74609 12 6.74609C12.4142 6.74609 12.75 7.08188 12.75 7.49609L12.75 17.4961C12.75 17.9103 12.4142 18.2461 12 18.2461Z" fill="black"/>
<path fill-rule="evenodd" clip-rule="evenodd" d="M12.069 16.7468L15.7626 12.9534C16.0516 12.6566 16.5264 12.6502 16.8232 12.9392C17.12 13.2282 17.1263 13.703 16.8373 13.9998L13.1304 17.8069C12.5375 18.3998 11.5626 18.3998 10.9697 17.8069L10.9626 17.7998L7.26263 13.9998C6.97367 13.703 6.98 13.2282 7.27678 12.9392C7.57355 12.6502 8.04838 12.6566 8.33734 12.9534L12.0309 16.7468C12.0327 16.7481 12.0382 16.7516 12.05 16.7516C12.0618 16.7516 12.0673 16.7481 12.069 16.7468Z" fill="black"/>
<path fill-rule="evenodd" clip-rule="evenodd" d="M18.75 17.5039C18.75 17.9181 18.4142 18.2539 18 18.2539L6 18.2539C5.58579 18.2539 5.25 17.9181 5.25 17.5039C5.25 17.0897 5.58579 16.7539 6 16.7539L18 16.7539C18.4142 16.7539 18.75 17.0897 18.75 17.5039Z" fill="black"/>
</svg>

<svg xmlns="http://www.w3.org/2000/svg" fill="none" viewBox="0 0 24 25">
  <path fill="#000" fill-rule="evenodd" d="M12 18.246a.75.75 0 0 1-.75-.75v-10a.75.75 0 0 1 1.5 0v10a.75.75 0 0 1-.75.75Z" clip-rule="evenodd"/>
  <path fill="#000" fill-rule="evenodd" d="m12.069 16.747 3.694-3.794A.75.75 0 1 1 16.837 14l-3.707 3.807a1.535 1.535 0 0 1-2.16 0l-.007-.007-3.7-3.8a.75.75 0 0 1 1.074-1.047l3.694 3.794c.002.001.007.005.019.005s.017-.004.019-.005Z" clip-rule="evenodd"/>
  <path fill="#000" fill-rule="evenodd" d="M18.75 17.504a.75.75 0 0 1-.75.75H6a.75.75 0 0 1 0-1.5h12a.75.75 0 0 1 .75.75Z" clip-rule="evenodd"/>
</svg>
